X: 2226
T: PRIDE OF THE BALL
Q: "Reel."
R: Reel.
%R: reel
B: James Kerr "Merry Melodies" v.2 p.25 #226
Z: 2016 John Chambers <jc:trillian.mit.edu>
N: The A in bar 9 is probably a typo, and should be G.
M: C
L: 1/8
K: Ador
(ugf) |\
eA (3(cBA) eA (3(cBA) | Bdef gedB |\
G2(BG) dGBG | Bdef g2(fg) |\
eA (3(cBA) eA (3(cBA) | Bdef g2(fg) |\
afge dfed | cAB^G A2 :|
|: (ufg) |\
a2(a^g) a2(ed) | cdef gfge |\
G2(BG) dGBG | Bdef g2(fg) |\
a2a^g a2ed | cdef g2(fg) |\
afge dfed | cAB^G A2 :|
